azure-patterns/svg-virtual-machine-scale-sets.svg

<svg xmlns="http://www.w3.org/2000/svg" viewBox="0 0 155 143">
                                
                            
  <path d="M96.4883168,112.857505 L60.0677228,112.857505 L58.1679208,112.857505 C63.2155248,130.675485 56.4349307,133.230178 26.7362376,133.230178 L26.7362376,142.559287 L64.5067723,142.559287 L92.0832475,142.559287 L127.725386,142.559287 L127.725386,133.230178 C98.0266931,133.230178 95.1136634,130.684752 100.167446,112.857505 L96.4883168,112.857505 Z" fill="#888888"></path>
  <path d="M145.126337,0 L8.39619802,0 C3.75017822,0 0.00308910891,4.15485149 0.00308910891,8.79469307 L0.00308910891,104.143129 C0.00308910891,108.755168 3.75017822,112.863683 8.39619802,112.863683 L145.126337,112.863683 C149.763089,112.863683 154.458535,108.755168 154.458535,104.143129 L154.458535,8.79469307 C154.458535,4.14249505 149.763089,0 145.126337,0" fill="#AEAEAE"></path>
  <path d="M145.222099,0.00926732673 C145.188119,0.00926732673 145.157228,0.00308910891 145.126337,0.00308910891 L8.39310891,0.00308910891 C3.74708911,0.00308910891 0,4.15485149 0,8.79778218 L0,104.143129 C0,108.758257 3.74708911,112.866772 8.39310891,112.866772 L11.6459406,112.866772 L145.222099,0.00926732673 Z" fill="#FFFFFF" opacity="0.2"></path>
  <polygon fill="#59B4D9" points="142.401743 11.8868911 142.401743 100.979881 11.7077228 100.979881 11.7077228 11.8868911"></polygon>
  <polygon fill="#59B4D9" points="11.7077228 100.979881 11.8868911 100.979881 11.8868911 11.8899802 131.373624 11.7108119 131.379802 11.7108119 11.7077228 11.8899802"></polygon>
  <rect fill="#A0A1A2" x="26.7362376" y="133.227089" width="100.989149" height="9.33219802"></rect>
  <path d="M78.8278812,6.47168317 C78.8278812,7.68261386 77.8455446,8.6649505 76.6346139,8.6649505 C75.4205941,8.6649505 74.4444356,7.68261386 74.4444356,6.47168317 C74.4444356,5.25766337 75.4205941,4.27841584 76.6346139,4.27841584 C77.8455446,4.27841584 78.8278812,5.25766337 78.8278812,6.47168317" fill="#B8D432"></path>
  <path d="M78.9143762,53.7319604 C78.7753663,53.7319604 78.6332673,53.6887129 78.5004356,53.6145743 L51.3039208,37.9157228 C51.053703,37.7674455 50.8961584,37.4925149 50.8961584,37.2021386 C50.8961584,36.9086733 51.053703,36.6368317 51.3039208,36.4916436 L78.3367129,20.8947327 C78.5900198,20.7526337 78.8989307,20.7526337 79.1491485,20.8947327 L106.354931,36.5997624 C106.608238,36.7449505 106.759604,37.0167921 106.759604,37.3102574 C106.759604,37.6068119 106.608238,37.8755644 106.354931,38.0207525 L79.3314059,53.6145743 C79.1985743,53.6887129 79.0657426,53.7319604 78.9143762,53.7319604" fill="#FFFFFF"></path>
  <path d="M75.0066535,91.8886337 C74.852198,91.8886337 74.7131881,91.8515644 74.5927129,91.7774257 L47.4765149,76.128 C47.2139406,75.9828119 47.056396,75.7171485 47.056396,75.4144158 L47.056396,44.0105347 C47.056396,43.7139802 47.2139406,43.4452277 47.4765149,43.2969505 C47.7267327,43.1455842 48.0356436,43.1455842 48.304396,43.2969505 L75.417505,58.940198 C75.6584554,59.0946535 75.8190891,59.3634059 75.8190891,59.6599604 L75.8190891,91.0638416 C75.8190891,91.3634851 75.6584554,91.6291485 75.417505,91.7774257 C75.2815842,91.8515644 75.1394851,91.8886337 75.0066535,91.8886337" fill="#FFFFFF" opacity="0.7"></path>
  <path d="M82.6830891,91.8886337 C82.5348119,91.8886337 82.395802,91.8515644 82.2567921,91.7774257 C82.0158416,91.6291485 81.858297,91.3634851 81.858297,91.0638416 L81.858297,59.8576634 C81.858297,59.5672871 82.0158416,59.2954455 82.2567921,59.1440792 L109.369901,43.5008317 C109.629386,43.3525545 109.932119,43.3525545 110.185426,43.5008317 C110.444911,43.6460198 110.602455,43.9178614 110.602455,44.2113267 L110.602455,75.4144158 C110.602455,75.7171485 110.444911,75.9828119 110.185426,76.128 L83.0815842,91.7774257 C82.9703762,91.8515644 82.8251881,91.8886337 82.6830891,91.8886337" fill="#FFFFFF" opacity="0.4"></path>
</svg>

<svg xmlns="http://www.w3.org/2000/svg" viewBox="0 0 155 143"><path d="M96.488 112.858h-38.32c5.048 17.817-1.733 20.372-31.432 20.372v9.33h100.989v-9.33c-29.698 0-32.611-2.545-27.558-20.372h-3.679z" fill="#888"/><path d="M145.126 0H8.396C3.75 0 .003 4.155.003 8.795v95.348c0 4.612 3.747 8.72 8.393 8.72h136.73c4.637 0 9.333-4.108 9.333-8.72V8.795c0-4.653-4.696-8.795-9.333-8.795" fill="#AEAEAE"/><path d="M145.222.01c-.034 0-.065-.007-.096-.007H8.393C3.747.003 0 4.155 0 8.798v95.345c0 4.615 3.747 8.724 8.393 8.724h3.253L145.222.009z" fill="#FFF" opacity=".2"/><path fill="#59B4D9" d="M142.402 11.887v89.093H11.708V11.887z"/><path fill="#59B4D9" d="M11.708 100.98h.179V11.89l119.487-.18h.006l-119.672.18z"/><path fill="#A0A1A2" d="M26.736 133.227h100.989v9.332H26.736z"/><path d="M78.828 6.472c0 1.21-.982 2.193-2.193 2.193a2.19 2.19 0 0 1-2.19-2.193 2.192 2.192 0 0 1 4.383 0" fill="#B8D432"/><path d="M78.914 53.732a.858.858 0 0 1-.414-.117l-27.196-15.7a.824.824 0 0 1 0-1.424l27.033-15.596a.827.827 0 0 1 .812 0L106.355 36.6a.814.814 0 0 1 .405.71.81.81 0 0 1-.405.71L79.33 53.616a.833.833 0 0 1-.417.117" fill="#FFF"/><path d="M75.007 91.889a.776.776 0 0 1-.414-.112L47.477 76.128a.804.804 0 0 1-.42-.714V44.011c0-.297.157-.566.42-.714a.811.811 0 0 1 .827 0L75.418 58.94a.862.862 0 0 1 .401.72v31.404c0 .3-.16.565-.401.713a.865.865 0 0 1-.411.112" fill="#FFF" opacity=".7"/><path d="M82.683 91.889a.887.887 0 0 1-.426-.112.837.837 0 0 1-.399-.713V59.858c0-.29.158-.563.399-.714l27.113-15.643a.803.803 0 0 1 .815 0c.26.145.417.417.417.71v31.203a.807.807 0 0 1-.417.714l-27.103 15.65a.73.73 0 0 1-.399.11" fill="#FFF" opacity=".4"/></svg>
